kora/actions/scalable/draw-geometry-angle-bisector.svg

<svg xmlns="http://www.w3.org/2000/svg" width="16" height="16" version="1.1">
 <defs>
  <style id="current-color-scheme" type="text/css">
   .ColorScheme-Text { color:#dfdfdf; } .ColorScheme-Highlight { color:#4285f4; }
  </style>
 </defs>
 <path style="fill:currentColor" class="ColorScheme-Text" d="M 2.7387,1.001 C 2.0893,1.001 1.7766,1.7739 2.1801,2.2412 L 3.9653,4.3662 6.268,14.409 C 6.4555,15.388 7.994,15.062 7.729,14.073 L 6.0805,6.8858 12.668,14.726 C 13.274,15.484 14.477,14.51 13.816,13.761 L 7.188,5.8721 13.951,8.6924 C 14.851,9.1155 15.475,7.6576 14.529,7.3096 L 5.0864,3.3701 3.3286,1.2764 C 3.1841,1.0996 2.9676,1.001 2.7387,1.001 Z"/>
</svg>

<svg xmlns="http://www.w3.org/2000/svg" style="fill-rule:evenodd;clip-rule:evenodd;stroke-linejoin:round;stroke-miterlimit:2" width="100%" height="100%" version="1.1" viewBox="0 0 16 16" xml:space="preserve">
 <defs>
  <style id="current-color-scheme" type="text/css">
   .ColorScheme-Text { color:#dfdfdf; } .ColorScheme-Highlight { color:#4285f4; } .ColorScheme-NeutralText { color:#ff9800; } .ColorScheme-PositiveText { color:#4caf50; } .ColorScheme-NegativeText { color:#f44336; }
  </style>
 </defs>
 <path style="fill:currentColor;" class="ColorScheme-Text" d="M2.739,1.001c-0.65,-0 -0.962,0.773 -0.559,1.24l1.785,2.125l2.303,10.043c0.188,0.979 1.726,0.653 1.461,-0.336l-1.649,-7.187l6.588,7.84c0.606,0.758 1.809,-0.216 1.148,-0.965l-6.628,-7.889l6.763,2.82c0.9,0.424 1.524,-1.034 0.578,-1.382l-9.443,-3.94l-1.757,-2.094c-0.145,-0.176 -0.361,-0.275 -0.59,-0.275Z"/>
</svg>
